!!!OTL: AUF IHR BRUEDER LASST UNS WALLEN
!!!ARE: Europa, Mitteleuropa, Deutschland, Hessen, Nassau
!!!SCT: E0796
!!!YEM: Copyright 1995, estate of Helmut Schaffrath.
**kern
*ICvox
*Ivox
*M4/4
*k[]
*C:
=1
{4G
4G
8G
8E
4C
=2
4F
4A
4c
4G
=3
4r}
{8B
8c
4d
4G
=4
4.c
8e
4e
4d}
=5
{4G
4G
4G
4c
=6
4A
4A
8c
8B
4A}
=7
{4G
4B
4d
8g
8f
=8
4.e
8g
4e
4c}
=9
{4G
4G
4G
4c
=10
4A
4A
8c
8B
4A}
=11
{4G
4B
4d
8g
8f
=12
2e
2r}
==
!!!AGN: Abschieds - Lied, Auswanderung
!!!ONB: ESAC (Essen Associative Code) Database: ERK2
!!!AMT: simple quadruple
!!!AIN: vox
!!!EED: Helmut Schaffrath
!!!EEV: 1.0
*-
